Newaita-dark/apps/32/transmission.svg

<svg height="32" viewBox="0 0 32 32" width="32" xmlns="http://www.w3.org/2000/svg" xmlns:xlink="http://www.w3.org/1999/xlink"><linearGradient id="a" gradientTransform="matrix(0 .062506 -.062506 0 18.729654 31.341532)" gradientUnits="userSpaceOnUse" x1="-349.249969" x2="-433.916626" y1="87.979172" y2="87.979172"><stop offset="0" stop-color="#f44336"/><stop offset="1" stop-color="#ef5350"/></linearGradient><linearGradient id="b"><stop offset="0" stop-opacity=".313726"/><stop offset=".222222" stop-opacity=".27451"/><stop offset="1" stop-opacity="0"/></linearGradient><radialGradient id="c" cx="450.908936" cy="189.579361" gradientTransform="matrix(.00000012 -.0781325 -.093759 -.0000001 33.651231 63.92609)" gradientUnits="userSpaceOnUse" r="21.166656" xlink:href="#b"/><radialGradient id="d" cx="450.908936" cy="189.579361" gradientTransform="matrix(-.00000012 .0781325 .093759 .0000001 -1.898195 -7.196722)" gradientUnits="userSpaceOnUse" r="21.166656" xlink:href="#b"/><radialGradient id="e" cx="450.908936" cy="189.579361" gradientTransform="matrix(-.00000012 -.0781325 .093759 -.0000001 -1.898195 63.92609)" gradientUnits="userSpaceOnUse" r="21.166656" xlink:href="#b"/><radialGradient id="f" cx="450.908936" cy="189.579361" gradientTransform="matrix(.00000012 .0781325 -.093759 .0000001 33.65123 -7.196722)" gradientUnits="userSpaceOnUse" r="21.166656" xlink:href="#b"/><linearGradient id="g" gradientTransform="matrix(.0089067 0 0 .062506 13.602427 13.769544)" gradientUnits="userSpaceOnUse" x1="255.323059" x2="255.323044" y1="233.5" y2="254.666656"><stop offset="0" stop-opacity=".27451"/><stop offset="1" stop-opacity="0"/></linearGradient><linearGradient id="h" gradientUnits="userSpaceOnUse" x1="15.876524" x2="15.876524" y1="28.033934" y2="4.219148"><stop offset="0" stop-color="#bdbdbd"/><stop offset="1" stop-color="#e0e0e0"/></linearGradient><path d="m27.785156 7.527344c0 1.09375-.890625 1.984375-1.984375 1.984375h-19.847656c-1.09375 0-1.984375-.890625-1.984375-1.984375 0-1.097656.890625-1.984375 1.984375-1.984375h19.847656c1.09375 0 1.984375.886719 1.984375 1.984375zm0 0" fill="url(#a)"/><path d="m16.097656 28.363281h1.761719v-1.320312h-1.761719zm0 0" fill="url(#c)"/><path d="m15.65625 28.363281h-1.765625v1.324219h1.765625zm0 0" fill="url(#d)"/><path d="m15.65625 28.363281h-1.765625v-1.320312h1.765625zm0 0" fill="url(#e)"/><path d="m16.097656 28.363281h1.761719v1.324219h-1.761719zm0 0" fill="url(#f)"/><path d="m15.65625 28.035156h.441406v1.652344h-.441406zm0 0" fill="url(#g)"/><path d="m5.953125 5.542969c-1.097656 0-1.984375.882812-1.984375 1.984375 0 .085937.007812.171875.015625.257812.125-.976562.957031-1.726562 1.96875-1.726562h19.847656c1.011719 0 1.839844.75 1.964844 1.726562.011719-.085937.019531-.171875.019531-.257812 0-1.101563-.886718-1.984375-1.984375-1.984375zm0 0" fill="#fff" fill-opacity=".392157"/><path d="m5.953125 9.5c-1.097656 0-1.984375-.886719-1.984375-1.984375 0-.089844.007812-.175781.015625-.257813.125.976563.957031 1.726563 1.96875 1.726563h19.847656c1.011719 0 1.839844-.75 1.964844-1.726563.011719.082032.019531.167969.019531.257813 0 1.097656-.886718 1.984375-1.984375 1.984375zm0 0" fill-opacity=".235294"/><path d="m-94.574-444.52005c17.498329 0 31.746968 14.248639 31.746968 31.746968v317.532177c0 17.498329-14.248639 31.746968-31.746968 31.746968-17.560823 0-31.746968-14.248639-31.746968-31.746968v-317.532177c0-17.498329 14.186145-31.746968 31.746968-31.746968zm0 0" fill="none" stroke="#212121" stroke-linecap="square" stroke-linejoin="bevel" stroke-width="3" transform="matrix(0 .062506 -.062506 0 0 13.438783)"/><path d="m14.554688 4.238281c-.734376 0-1.324219.589844-1.324219 1.324219v14.632812l-6.097657-2.613281c-.160156-.070312-.335937-.105469-.511718-.105469-1.226563-.003906-1.792969 1.519532-.863282 2.316407l9.261719 7.9375c.492188.421875 1.222657.421875 1.714844 0l9.261719-7.9375c.492187-.421875.601562-1.144531.257812-1.695313-.34375-.550781-1.035156-.769531-1.632812-.515625l-6.097656 2.613281v-14.632812c0-.734375-.589844-1.324219-1.324219-1.324219zm0 0" fill="url(#h)"/><path d="m14.554688 4.238281c-.734376 0-1.324219.589844-1.324219 1.324219v.476562c0-.734374.589843-1.324218 1.324219-1.324218h2.644531c.734375 0 1.324219.589844 1.324219 1.324218v-.476562c0-.734375-.589844-1.324219-1.324219-1.324219zm10.582031 13.238281c-.171875 0-.347657.035157-.515625.105469l-6.097656 2.613281v.476563l6.097656-2.613281c.597656-.253906 1.289062-.035156 1.632812.515625.089844.144531.148438.296875.179688.457031.054687-.3125 0-.644531-.179688-.933594-.246094-.394531-.675781-.621094-1.117187-.621094zm-18.515625 0c-.898438-.003906-1.441406.8125-1.304688 1.566407.109375-.585938.597656-1.09375 1.304688-1.089844.175781 0 .351562.035156.511718.105469l6.097657 2.613281v-.476563l-6.097657-2.613281c-.160156-.070312-.335937-.105469-.511718-.105469zm0 0" fill="#fff" fill-opacity=".784314"/><path d="m26.429688 18.542969c-.054688.285156-.203126.550781-.433594.75l-9.261719 7.9375c-.492187.421875-1.222656.421875-1.714844 0l-9.261719-7.9375c-.242187-.210938-.382812-.46875-.4375-.738281-.082031.425781.042969.898437.4375 1.238281l9.261719 7.9375c.492188.421875 1.222657.421875 1.714844 0l9.261719-7.9375c.367187-.316407.519531-.796875.433594-1.25zm0 0" fill-opacity=".235294"/><path d="m232.852764-147.193975c-11.748878 0-21.185477 9.436599-21.185477 21.185477v234.102644l-97.553184-41.808507c-2.562256-1.124893-5.374487-1.687339-8.186719-1.687339-19.623126-.062494-28.68476 24.310178-13.811181 37.058961l148.17335 126.987873c7.874249 6.749355 19.560633 6.749355 27.434881 0l148.17335-126.987873c7.874248-6.749356 9.624081-18.310752 4.124606-27.12241-5.499475-8.811659-16.560919-12.311325-26.122506-8.249212l-97.553184 41.808507v-234.102644c0-11.748878-9.436599-21.185477-21.185477-21.185477zm0 0" fill="none" stroke="#212121" stroke-linecap="round" stroke-linejoin="round" stroke-width="3" transform="matrix(.062506 0 0 .062506 0 13.438783)"/></svg>

<?xml version="1.0" encoding="UTF-8"?>
<svg xmlns="http://www.w3.org/2000/svg" xmlns:xlink="http://www.w3.org/1999/xlink" width="32px" height="32px" viewBox="0 0 32 32" version="1.1">
<defs>
<linearGradient id="linear0" gradientUnits="userSpaceOnUse" x1="-349.249969" y1="87.979172" x2="-433.916626" y2="87.979172" gradientTransform="matrix(0.000000000000000004,0.062506,-0.062506,0.000000000000000004,18.729654,31.341532)">
<stop offset="0" style="stop-color:rgb(95.686275%,26.274511%,21.176471%);stop-opacity:1;"/>
<stop offset="1" style="stop-color:rgb(93.725491%,32.549021%,31.37255%);stop-opacity:1;"/>
</linearGradient>
<radialGradient id="radial0" gradientUnits="userSpaceOnUse" cx="450.908936" cy="189.579361" fx="450.908936" fy="189.579361" r="21.166656" gradientTransform="matrix(0.000000116114,-0.0781325,-0.093759,-0.000000101539,33.651231,63.92609)">
<stop offset="0" style="stop-color:rgb(0%,0%,0%);stop-opacity:0.313726;"/>
<stop offset="0.222222" style="stop-color:rgb(0%,0%,0%);stop-opacity:0.27451;"/>
<stop offset="1" style="stop-color:rgb(0%,0%,0%);stop-opacity:0;"/>
</radialGradient>
<radialGradient id="radial1" gradientUnits="userSpaceOnUse" cx="450.908936" cy="189.579361" fx="450.908936" fy="189.579361" r="21.166656" gradientTransform="matrix(-0.000000116114,0.0781325,0.093759,0.000000101539,-1.898195,-7.196722)">
<stop offset="0" style="stop-color:rgb(0%,0%,0%);stop-opacity:0.313726;"/>
<stop offset="0.222222" style="stop-color:rgb(0%,0%,0%);stop-opacity:0.27451;"/>
<stop offset="1" style="stop-color:rgb(0%,0%,0%);stop-opacity:0;"/>
</radialGradient>
<radialGradient id="radial2" gradientUnits="userSpaceOnUse" cx="450.908936" cy="189.579361" fx="450.908936" fy="189.579361" r="21.166656" gradientTransform="matrix(-0.000000116114,-0.0781325,0.093759,-0.000000101539,-1.898195,63.92609)">
<stop offset="0" style="stop-color:rgb(0%,0%,0%);stop-opacity:0.313726;"/>
<stop offset="0.222222" style="stop-color:rgb(0%,0%,0%);stop-opacity:0.27451;"/>
<stop offset="1" style="stop-color:rgb(0%,0%,0%);stop-opacity:0;"/>
</radialGradient>
<radialGradient id="radial3" gradientUnits="userSpaceOnUse" cx="450.908936" cy="189.579361" fx="450.908936" fy="189.579361" r="21.166656" gradientTransform="matrix(0.000000116114,0.0781325,-0.093759,0.000000101539,33.65123,-7.196722)">
<stop offset="0" style="stop-color:rgb(0%,0%,0%);stop-opacity:0.313726;"/>
<stop offset="0.222222" style="stop-color:rgb(0%,0%,0%);stop-opacity:0.27451;"/>
<stop offset="1" style="stop-color:rgb(0%,0%,0%);stop-opacity:0;"/>
</radialGradient>
<linearGradient id="linear1" gradientUnits="userSpaceOnUse" x1="255.323059" y1="233.5" x2="255.323044" y2="254.666656" gradientTransform="matrix(0.0089067,0,0,0.062506,13.602427,13.769544)">
<stop offset="0" style="stop-color:rgb(0%,0%,0%);stop-opacity:0.27451;"/>
<stop offset="1" style="stop-color:rgb(0%,0%,0%);stop-opacity:0;"/>
</linearGradient>
<linearGradient id="linear2" gradientUnits="userSpaceOnUse" x1="254" y1="233.5" x2="254" y2="-147.5" gradientTransform="matrix(0.062506,0,0,0.062506,0,13.438783)">
<stop offset="0" style="stop-color:rgb(74.117649%,74.117649%,74.117649%);stop-opacity:1;"/>
<stop offset="1" style="stop-color:rgb(87.843138%,87.843138%,87.843138%);stop-opacity:1;"/>
</linearGradient>
</defs>
<g id="surface1">
<path style=" stroke:none;fill-rule:nonzero;fill:url(#linear0);" d="M 27.785156 7.527344 C 27.785156 8.621094 26.894531 9.511719 25.800781 9.511719 L 5.953125 9.511719 C 4.859375 9.511719 3.96875 8.621094 3.96875 7.527344 C 3.96875 6.429688 4.859375 5.542969 5.953125 5.542969 L 25.800781 5.542969 C 26.894531 5.542969 27.785156 6.429688 27.785156 7.527344 Z M 27.785156 7.527344 "/>
<path style=" stroke:none;fill-rule:nonzero;fill:url(#radial0);" d="M 16.097656 28.363281 L 17.859375 28.363281 L 17.859375 27.042969 L 16.097656 27.042969 Z M 16.097656 28.363281 "/>
<path style=" stroke:none;fill-rule:nonzero;fill:url(#radial1);" d="M 15.65625 28.363281 L 13.890625 28.363281 L 13.890625 29.6875 L 15.65625 29.6875 Z M 15.65625 28.363281 "/>
<path style=" stroke:none;fill-rule:nonzero;fill:url(#radial2);" d="M 15.65625 28.363281 L 13.890625 28.363281 L 13.890625 27.042969 L 15.65625 27.042969 Z M 15.65625 28.363281 "/>
<path style=" stroke:none;fill-rule:nonzero;fill:url(#radial3);" d="M 16.097656 28.363281 L 17.859375 28.363281 L 17.859375 29.6875 L 16.097656 29.6875 Z M 16.097656 28.363281 "/>
<path style=" stroke:none;fill-rule:nonzero;fill:url(#linear1);" d="M 15.65625 28.035156 L 16.097656 28.035156 L 16.097656 29.6875 L 15.65625 29.6875 Z M 15.65625 28.035156 "/>
<path style=" stroke:none;fill-rule:nonzero;fill:rgb(100%,100%,100%);fill-opacity:0.392157;" d="M 5.953125 5.542969 C 4.855469 5.542969 3.96875 6.425781 3.96875 7.527344 C 3.96875 7.613281 3.976562 7.699219 3.984375 7.785156 C 4.109375 6.808594 4.941406 6.058594 5.953125 6.058594 L 25.800781 6.058594 C 26.8125 6.058594 27.640625 6.808594 27.765625 7.785156 C 27.777344 7.699219 27.785156 7.613281 27.785156 7.527344 C 27.785156 6.425781 26.898438 5.542969 25.800781 5.542969 Z M 5.953125 5.542969 "/>
<path style=" stroke:none;fill-rule:nonzero;fill:rgb(0%,0%,0%);fill-opacity:0.235294;" d="M 5.953125 9.5 C 4.855469 9.5 3.96875 8.613281 3.96875 7.515625 C 3.96875 7.425781 3.976562 7.339844 3.984375 7.257812 C 4.109375 8.234375 4.941406 8.984375 5.953125 8.984375 L 25.800781 8.984375 C 26.8125 8.984375 27.640625 8.234375 27.765625 7.257812 C 27.777344 7.339844 27.785156 7.425781 27.785156 7.515625 C 27.785156 8.613281 26.898438 9.5 25.800781 9.5 Z M 5.953125 9.5 "/>
<path style="fill:none;stroke-width:3;stroke-linecap:square;stroke-linejoin:bevel;stroke:rgb(12.941177%,12.941177%,12.941177%);stroke-opacity:1;stroke-miterlimit:4;" d="M -94.574 -444.52005 C -77.075671 -444.52005 -62.827032 -430.271411 -62.827032 -412.773082 L -62.827032 -95.240905 C -62.827032 -77.742576 -77.075671 -63.493937 -94.574 -63.493937 C -112.134823 -63.493937 -126.320968 -77.742576 -126.320968 -95.240905 L -126.320968 -412.773082 C -126.320968 -430.271411 -112.134823 -444.52005 -94.574 -444.52005 Z M -94.574 -444.52005 " transform="matrix(0.000000000000000004,0.062506,-0.062506,0.000000000000000004,0,13.438783)"/>
<path style=" stroke:none;fill-rule:nonzero;fill:url(#linear2);" d="M 14.554688 4.238281 C 13.820312 4.238281 13.230469 4.828125 13.230469 5.5625 L 13.230469 20.195312 L 7.132812 17.582031 C 6.972656 17.511719 6.796875 17.476562 6.621094 17.476562 C 5.394531 17.472656 4.828125 18.996094 5.757812 19.792969 L 15.019531 27.730469 C 15.511719 28.152344 16.242188 28.152344 16.734375 27.730469 L 25.996094 19.792969 C 26.488281 19.371094 26.597656 18.648438 26.253906 18.097656 C 25.910156 17.546875 25.21875 17.328125 24.621094 17.582031 L 18.523438 20.195312 L 18.523438 5.5625 C 18.523438 4.828125 17.933594 4.238281 17.199219 4.238281 Z M 14.554688 4.238281 "/>
<path style=" stroke:none;fill-rule:nonzero;fill:rgb(100%,100%,100%);fill-opacity:0.784314;" d="M 14.554688 4.238281 C 13.820312 4.238281 13.230469 4.828125 13.230469 5.5625 L 13.230469 6.039062 C 13.230469 5.304688 13.820312 4.714844 14.554688 4.714844 L 17.199219 4.714844 C 17.933594 4.714844 18.523438 5.304688 18.523438 6.039062 L 18.523438 5.5625 C 18.523438 4.828125 17.933594 4.238281 17.199219 4.238281 Z M 25.136719 17.476562 C 24.964844 17.476562 24.789062 17.511719 24.621094 17.582031 L 18.523438 20.195312 L 18.523438 20.671875 L 24.621094 18.058594 C 25.21875 17.804688 25.910156 18.023438 26.253906 18.574219 C 26.34375 18.71875 26.402344 18.871094 26.433594 19.03125 C 26.488281 18.71875 26.433594 18.386719 26.253906 18.097656 C 26.007812 17.703125 25.578125 17.476562 25.136719 17.476562 Z M 6.621094 17.476562 C 5.722656 17.472656 5.179688 18.289062 5.316406 19.042969 C 5.425781 18.457031 5.914062 17.949219 6.621094 17.953125 C 6.796875 17.953125 6.972656 17.988281 7.132812 18.058594 L 13.230469 20.671875 L 13.230469 20.195312 L 7.132812 17.582031 C 6.972656 17.511719 6.796875 17.476562 6.621094 17.476562 Z M 6.621094 17.476562 "/>
<path style=" stroke:none;fill-rule:nonzero;fill:rgb(0%,0%,0%);fill-opacity:0.235294;" d="M 26.429688 18.542969 C 26.375 18.828125 26.226562 19.09375 25.996094 19.292969 L 16.734375 27.230469 C 16.242188 27.652344 15.511719 27.652344 15.019531 27.230469 L 5.757812 19.292969 C 5.515625 19.082031 5.375 18.824219 5.320312 18.554688 C 5.238281 18.980469 5.363281 19.453125 5.757812 19.792969 L 15.019531 27.730469 C 15.511719 28.152344 16.242188 28.152344 16.734375 27.730469 L 25.996094 19.792969 C 26.363281 19.476562 26.515625 18.996094 26.429688 18.542969 Z M 26.429688 18.542969 "/>
<path style="fill:none;stroke-width:3;stroke-linecap:round;stroke-linejoin:round;stroke:rgb(12.941177%,12.941177%,12.941177%);stroke-opacity:1;stroke-miterlimit:4;" d="M 232.852764 -147.193975 C 221.103886 -147.193975 211.667287 -137.757376 211.667287 -126.008498 L 211.667287 108.094146 L 114.114103 66.285639 C 111.551847 65.160746 108.739616 64.5983 105.927384 64.5983 C 86.304258 64.535806 77.242624 88.908478 92.116203 101.657261 L 240.289553 228.645134 C 248.163802 235.394489 259.850186 235.394489 267.724434 228.645134 L 415.897784 101.657261 C 423.772032 94.907905 425.521865 83.346509 420.02239 74.534851 C 414.522915 65.723192 403.461471 62.223526 393.899884 66.285639 L 296.3467 108.094146 L 296.3467 -126.008498 C 296.3467 -137.757376 286.910101 -147.193975 275.161223 -147.193975 Z M 232.852764 -147.193975 " transform="matrix(0.062506,0,0,0.062506,0,13.438783)"/>
</g>
</svg>
